!!!OTL: FIROWE D GLOCK ISCH DROWE
!!!ARE: Europa, Mitteleuropa, Deutschland; France, Ober - Elsass
!!!SCT: K0312
!!!YEM: Copyright 1995, estate of Helmut Schaffrath.
**kern
*ICvox
*Ivox
!! Mixed meters:  2/4; 3/8
*M2/4
*k[b-]
*F:
=1
{4cc
8a
8f
=2
8cc
8b-
8a
8f}
=3
{8cc
8dd
8cc
8dd
=4
8cc
8b-
8a
8f}
=5
{4cc
8cc
8dd
=6
4cc
4a}
=7
{8cc
8dd
8cc
8dd
=8
4cc
4a}
=9
{4cc
8cc
8dd
=10
4cc
4a}
=11
*M3/8
{16dd
16dd
16cc
16cc
16b-
16b-
=12
4a
4f}
==
!!!AGN: Kinder -, Kose -, Scherz - Lied
!!!ONB: ESAC (Essen Associative Code) Database: KINDER
!!!AMT: irregular
!!!AIN: vox
!!!EED: Helmut Schaffrath
!!!EEV: 1.0
*-
